kora/panel/16/radiotray_connecting.svg

<svg xmlns="http://www.w3.org/2000/svg" width="16" height="16" version="1.1">
 <defs>
  <style id="current-color-scheme" type="text/css">
   .ColorScheme-Text { color:#dfdfdf; } .ColorScheme-Highlight { color:#4285f4; }
  </style>
 </defs>
 <path style="fill:currentColor" class="ColorScheme-Text" d="M 1.015625 2 C 0.4527806 2 -1.4802974e-16 2.4575152 0 3.0273438 L 0 12.972656 C 0 13.542656 0.4527806 14 1.015625 14 L 14.984375 14 C 15.547931 14 16 13.542656 16 12.972656 L 16 3.0273438 C 16 2.4576866 15.547931 2 14.984375 2 L 1.015625 2 z M 5 4 C 7.209 4 9 5.7909 9 8 C 9 10.209 7.209 12 5 12 C 2.7909 12 1 10.209 1 8 C 1 5.7909 2.7909 4 5 4 z M 10 4 L 15 4 L 15 5 L 10 5 L 10 4 z M 10 7 L 15 7 L 15 8 L 10 8 L 10 7 z M 10 10 L 15 10 L 15 11 L 10 11 L 10 10 z"/>
 <path style="fill:currentColor" class="ColorScheme-Text" d="M 5,5 C 3.3431,5 2,6.3432 2,8 2,9.657 3.3431,11 5,11 6.6568,11 8,9.657 8,8 8,6.3432 6.6568,5 5,5 Z"/>
</svg>

<svg xmlns="http://www.w3.org/2000/svg" width="16" height="16" viewBox="0 0 16 16">
 <defs>
  <style id="current-color-scheme" type="text/css">
   .ColorScheme-Text { color:#dfdfdf; } .ColorScheme-Highlight { color:#4285f4; } .ColorScheme-NeutralText { color:#ff9800; } .ColorScheme-PositiveText { color:#4caf50; } .ColorScheme-NegativeText { color:#f44336; }
  </style>
 </defs> 
 <path style="opacity:0.3;fill:currentColor" class="ColorScheme-Text" d="m1.016 2c-.563 0-1.016.458-1.016 1.027v9.946c0 .57.453 1.027 1.016 1.027h13.968c.564 0 1.016-.457 1.016-1.027v-9.946c0-.569-.452-1.027-1.016-1.027zm3.984 2c2.209 0 4 1.791 4 4s-1.791 4-4 4-4-1.791-4-4 1.791-4 4-4z" />
 <path style="fill:currentColor" class="ColorScheme-Text" d="m10 10h5v1h-5zm-5-5c-1.657 0-3 1.343-3 3s1.343 3 3 3 3-1.343 3-3-1.343-3-3-3zm5 2h5v1h-5zm0-3h5v1h-5z"/>
</svg>
